!!!!SEGMENT: pl-sa--27-a-i-27--002_dankowski-adalbert--vespere-de-confessore-dixit-dominus.krn
!!!cenid: 18xx:327
!!!COM: Dankowski, Adalbert
!!!COM-rismID: pe30000793
!!!CDT: ~1760-~1836
!!!CNT: Polish
!!!OPR: Vespere de confessore
!!!OTL: Dixit dominus
!!!OMV: 002
!!!PDT: 1815
!!!AGN: Sacred; Vespers
!!!SMS-siglum: PL-SA
!!!SMS-shelfmark: 27/A I 27
!!!SMS-shelfwork: 001-002 M
!!!SMS-variant:
!!!SMS-altvar:
!!!NIFC-rismSourceID: 1001068242
!!!NIFC-rismChildID: 1001068242
!!!NIFC-islandoraID:
!!!URL-pdf-islandora:
!!!URL-scan: https://bc.bdsandomierz.pl/dlibra/publication/1260/edition/1228/content @EN{Scan in the Sandomierz Diocese Digital Library} @PL{Skany w portalu Cyfrowa Biblioteka Diecezjalna w Sandomierzu}
!!!ONB-nifc: UWAGA: części Vespere: Domine ad adiuvandum, Dixit dominus, Confitebor, Beatus vir, Laudate Dominum, Magnificat
!!!AIN: 1 alto 1 organ 1 tenor 2 violn 1 vox
!!!key:
**kern	**fba	**dynam	**kern	**dynam	**kern	**dynam	**kern	**text	**kern	**text	**kern	**text
*part6	*	*part6	*part5	*part5	*part4	*part4	*part3	*part3	*part2	*part2	*part1	*part1
*staff6	*	*	*staff5	*	*staff4	*	*staff3	*staff3	*staff2	*staff2	*staff1	*staff1
*Iorgan	*	*	*Ivioln	*	*Ivioln	*	*Itenor	*	*Ialto	*	*Ivox	*
*I"Organo.	*	*	*I"Violino 2do	*	*I"Violino Primo.	*	*I"Tenorae	*	*I"Alto:	*	*I"Canto	*
*I'org	*	*	*I'vn 2	*	*I'vn 1	*	*I'T	*	*I'A	*	*I'C	*
*clefF4	*	*	*clefG2	*	*clefG2	*	*clefC4	*	*clefC3	*	*clefC1	*
*k[]	*	*	*k[]	*	*k[]	*	*k[]	*	*k[]	*	*k[]	*
*C:	*	*	*C:	*	*C:	*	*C:	*	*C:	*	*C:	*
*M4/4	*	*	*M4/4	*	*M4/4	*	*M4/4	*	*M4/4	*	*M4/4	*
*met(c)	*	*	*met(c)	*	*met(c)	*	*met(c)	*	*met(c)	*	*met(c)	*
=1	=1	=1	=1	=1	=1	=1	=1	=1	=1	=1	=1	=1
!LO:TX:b:t=Dixit	!	!	!	!	!LO:TX:b:t=Dixit	!	!	!	!	!	!	!
!LO:TX:a:t=all[egr]o. Moderato	!	!	!LO:TX:a:t=All[egr]o Moderato	!	!	!	!	!	!	!	!	!
!	!	!	!LO:TX:b:t=Dixit	!	!LO:TX:a:t=All[egr]o Moderato	!	!LO:TX:a:t=All[egr]o Moderato	!	!	!	!	!
4C/	.	.	4cc 4e/	.	4cc 4e/	.	8rc	.	8re	.	8r	.
.	.	.	.	.	.	.	4c\	Di-	4cc\	Di-	4cc\	Di-
4r	.	.	4r	.	4r	.	.	.	.	.	.	.
.	.	.	.	.	.	.	8c\	-xit	8cc\	-xit	8cc\	-xit
8r	.	.	8r	.	8r	.	4.c\	Do-	4.cc\	Do-	4.cc\	Do-
16C/LL	.	.	16e/LL	.	16e/LL	.	.	.	.	.	.	.
16D/JJ	.	.	16f/JJ	.	16f/JJ	.	.	.	.	.	.	.
16E\LL	.	.	16g/LL	.	16g/LL	.	.	.	.	.	.	.
16F\	.	.	16a/	.	16a/	.	.	.	.	.	.	.
16E\	.	.	16g/	.	16g/	.	8c\	-mi-	8cc\	-mi-	8cc\	-mi-
16D\JJ	.	.	16f/JJ	.	16f/JJ	.	.	.	.	.	.	.
=2	=2	=2	=2	=2	=2	=2	=2	=2	=2	=2	=2	=2
4C/	.	.	4e/	.	4e/	.	8c\	-nus	8cc\	-nus	8cc\	-nus
.	.	.	.	.	.	.	8c\	Do-	8cc\	Do-	8cc\	Do-
4r	.	.	4r	.	4r	.	8c\	-mi-	8cc\	-mi-	8cc\	-mi-
.	.	.	.	.	.	.	8c\	-no	8cc\	-no	8cc\	-no
*	*	*	*	*	*	*	*2\right	*	*	*	*2\right	*
8r	.	.	8r	.	8r	.	2c\	me-	2cc\	me-	2cc\	me-
16C/LL	.	.	16e/LL	.	16e/LL	.	.	.	.	.	.	.
16D/JJ	.	.	16f/JJ	.	16f/JJ	.	.	.	.	.	.	.
16E\LL	.	.	16g/LL	.	16g/LL	.	.	.	.	.	.	.
(16F\	.	.	16a/	.	16a/	.	.	.	.	.	.	.
16E\	.	.	16g/	.	16g/	.	.	.	.	.	.	.
16D\JJ)	.	.	16f/JJ	.	16f/JJ	.	.	.	.	.	.	.
=3	=3	=3	=3	=3	=3	=3	=3	=3	=3	=3	=3	=3
4C/	.	.	4e/	.	4e/	.	8c\	-o	8.cc\	-o	8cc\	-o
.	.	.	.	.	.	.	8c\	Se-	.	.	8cc\	se-
.	.	.	.	.	.	.	.	.	16cc\	se-	.	.
4r	.	.	4r	.	4r	.	8B\	-de	8b\	-de	8b\	-de
.	.	.	.	.	.	.	8A\	a	8a\	a	8a\	a
!	!	!	!	!	!	!	!	!	!	!	!LO:LB:g=original	!
2rBB	.	.	2rg	.	2rg	.	8G/	dex-	8g\	dex-	8g\	dex-
.	.	.	.	.	.	.	8G/	-tris	16f\LL	-tris	8cc\	-tris
.	.	.	.	.	.	.	.	.	16e\JJ	.	.	.
.	.	.	.	.	.	.	8A/L	me-	4d\	me-	8cc\	me-
.	.	.	.	.	.	.	8G/J	.	.	.	8b\	.
=4	=4	=4	=4	=4	=4	=4	=4	=4	=4	=4	=4	=4
!	!	!	!	!	!	!LO:DY:b:t=for	!	!	!	!	!	!
8c\L	.	.	16e/LL	.	8.cc\L	f	8G\	-is	8e\	-is	8cc\	-is
.	.	.	16g/	.	.	.	.	.	.	.	.	.
8c\	.	.	16e/	.	.	.	16c\	do-	16g\	do-	16ee\	do-
.	.	.	16g/JJ	.	16ee\Jk	.	16c\	-nec	16g\	-nec	16ee\	-nec
!	!	!	!	!	!	!	!LO:LB:g=original	!	!	!	!	!
8c\	.	.	16e/LL	.	8gg\L	.	8c\	po-	8g\	po-	8ee\	po-
.	.	.	16g/	.	.	.	.	.	.	.	.	.
8c\J	.	.	16e/	.	8gg\J	.	8c\	-nam	8g\	-nam	8ee\	-nam
.	.	.	16g/JJ	.	.	.	.	.	.	.	.	.
*tremolo	*	*	*	*	*	*	*	*	*	*	*	*
*2\right	*	*	*	*	*	*	*	*	*	*	*	*
8B\L	6 5	.	16f/LL	.	8.gg\L	.	8d\	i-	8g\	i-	8dd\	i-
.	.	.	16g/	.	.	.	.	.	.	.	.	.
8B\	.	.	16f/	.	.	.	8d\	-ni-	8g\	-ni-	8dd\	-ni-
.	.	.	16g/JJ	.	16ff\Jk	.	.	.	.	.	.	.
8B\	.	.	16d/LL	.	(16dd\LL	.	8d\	-mi-	8g\	-mi-	8dd\	-mi-
.	.	.	16f/	.	16ee\	.	.	.	.	.	.	.
8B\J	.	.	16d/	.	16ff\	.	8d\	-cos	8g\	-cos	8dd\	-cos
.	.	.	16f/JJ	.	16gg\JJ)	.	.	.	.	.	.	.
!LO:LB:g=original	!	!	!LO:LB:g=original	!	!	!	!	!	!LO:LB:g=original	!	!	!
=5	=5	=5	=5	=5	=5	=5	=5	=5	=5	=5	=5	=5
*	*	*	*tremolo	*	*	*	*	*	*	*	*	*
8c\L	.	.	16e/LL	.	8ee\L|	.	4c\	tu-	4g\	tu-	4ee\	Tu-
.	.	.	16g/	.	.	.	.	.	.	.	.	.
8c\	.	.	16e/	.	(32cc\LL	.	.	.	.	.	.	.
.	.	.	.	.	32dd\	.	.	.	.	.	.	.
.	.	.	16g/	.	32ee\	.	.	.	.	.	.	.
.	.	.	.	.	32ff\JJJ	.	.	.	.	.	.	.
8c\	.	.	16e/	.	8gg\L)	.	8c\	-os	8g\	-os	8ee\	-os
.	.	.	16g/	.	.	.	.	.	.	.	.	.
8c\J	.	.	16e/	.	8gg\J	.	8c\	sca-	8g\	sca-	8ee\	sca-
.	.	.	16g/JJ	.	.	.	.	.	.	.	.	.
*	*	*	*Xtremolo	*	*	*	*	*	*	*	*	*
8B\L	6 5	.	16f/LL	.	8.gg\L	.	4d\	-bel-	4g\	-be-	4dd\	-be-
.	.	.	16g/	.	.	.	.	.	.	.	.	.
8B\	.	.	16f/	.	.	.	.	.	.	.	.	.
.	.	.	16g/JJ	.	16ff\Jk	.	.	.	.	.	.	.
8B\	.	.	16d/LL	.	(16dd\LL	.	8d\	-lum	8g\	-lum	8dd\	-lum
.	.	.	16f/	.	16ee\	.	.	.	.	.	.	.
8B\J	.	.	16d/	.	16ff\	.	8d\	sca-	8g\	sca-	8dd\	sca-
.	.	.	16f/JJ	.	16gg\JJ)	.	.	.	.	.	.	.
=6	=6	=6	=6	=6	=6	=6	=6	=6	=6	=6	=6	=6
*	*	*	*tremolo	*	*	*	*	*	*	*	*	*
8c\L	.	.	16e/LL	.	8.ee\L	.	4c\	-bel-	4g\	-bel-	4ee\	-be-
.	.	.	16g/	.	.	.	.	.	.	.	.	.
8c\	.	.	16e/	.	.	.	.	.	.	.	.	.
.	.	.	16g/	.	32cc\LL	.	.	.	.	.	.	.
.	.	.	.	.	32dd\JJJ	.	.	.	.	.	.	.
!	!	!	!	!	!LO:LB:g=original	!	!	!	!	!	!	!
8c\	.	.	16e/	.	8ee\L	.	4c\	-lum	4g\	-lum	4ee\	-lum
.	.	.	16g/	.	.	.	.	.	.	.	.	.
8c\J	.	.	16e/	.	8ee\J	.	.	.	.	.	.	.
.	.	.	16g/JJ	.	.	.	.	.	.	.	.	.
8A\L	.	.	16e/LL	.	8.ee\L	.	4c\	pe-	4a\	pe-	4ee\	pe-
.	.	.	16cc/	.	.	.	.	.	.	.	.	.
8A\	.	.	16e/	.	.	.	.	.	.	.	.	.
.	.	.	16cc/	.	(32cc\LL	.	.	.	.	.	.	.
.	.	.	.	.	32dd\JJJ)	.	.	.	.	.	.	.
8A\	.	.	16e/	.	8ee\L|	.	4c\	-dum	4a\	-dum	4ee\	-dum
.	.	.	16cc/	.	.	.	.	.	.	.	.	.
8A\J	.	.	16e/	.	8ee\J|	.	.	.	.	.	.	.
.	.	.	16cc/JJ	.	.	.	.	.	.	.	.	.
!	!	!	!	!	!	!	!	!	!	!	!LO:LB:g=original	!
=7	=7	=7	=7	=7	=7	=7	=7	=7	=7	=7	=7	=7
8F#X\L	6 5	.	16a/LL	.	8.ee\L	.	4c\	pe-	4a\	pe-	4ee\	pe-
.	.	.	16cc/	.	.	.	.	.	.	.	.	.
8F#X\	.	.	16a/	.	.	.	.	.	.	.	.	.
.	.	.	16cc/	.	(32cc\LL	.	.	.	.	.	.	.
.	.	.	.	.	32dd\JJJ)	.	.	.	.	.	.	.
8F#X\	.	.	16a/	.	8ee\L	.	8c\	-dum	8a\	-dum	8ee\	-dum
.	.	.	16cc/	.	.	.	.	.	.	.	.	.
8F#X\J	.	.	16a/	.	8ee\J	.	8c\	tu-	8a\	tu-	8ee\	tu-
.	.	.	16cc/JJ	.	.	.	.	.	.	.	.	.
*Xtremolo	*	*	*Xtremolo	*	*	*	*	*	*	*	*	*
!LO:TX:a:t=P:problem=mixed beam	!	!	!	!	!	!	!	!	!	!	!	!
8G\L	4	.	8cc\L	.	8ee\L	.	8c\	-o-	8g\	-o-	8ee\	-o-
8GG/	3	.	8b\	.	8dd\J	.	8B\	-rum	8g\	-rum	8dd\	-rum
8G\	.	.	8b\	.	16gg\LL	.	8d\	Vir-	8g\	Vir-	8dd\	Vir-
.	.	.	.	.	(16aa\	.	.	.	.	.	.	.
8B\J	6	.	8dd\J	.	16gg\	.	8d\	-gam	8g\	-gam	8dd\	-gam
.	.	.	.	.	16ff\JJ)	.	.	.	.	.	.	.
!	!	!	!	!	!	!	!LO:LB:g=original	!	!	!	!	!
=8	=8	=8	=8	=8	=8	=8	=8	=8	=8	=8	=8	=8
*tremolo	*	*	*tremolo	*	*	*	*	*	*	*	*	*
8c\L	.	.	8g/L	.	8ee\L	.	4c\	Vir-	4g\	Vir-	4ee\	Vir-
8c\	.	.	8g/	.	16ee\L	.	.	.	.	.	.	.
.	.	.	.	.	16dd\JJ	.	.	.	.	.	.	.
8c\	.	.	8g/	.	16ee\LL	.	8c\	-tu-	8g\	-tu-	8ee\	-tu-
.	.	.	.	.	16ff\	.	.	.	.	.	.	.
8c\J	.	.	8g/J	.	16gg\	.	8c\	-tis	8g\	-tis	8ee\	-tis
*	*	*	*Xtremolo	*	*	*	*	*	*	*	*	*
.	.	.	.	.	16ee\JJ	.	.	.	.	.	.	.
8B\L	6	.	8g/L	.	16ee\LL	.	4d\	tu-	4g\	tu-	4dd\	tu-
.	.	.	.	.	16dd\J	.	.	.	.	.	.	.
8B\	.	.	8g/	.	8.dd\J	.	.	.	.	.	.	.
8B\	.	.	8b/	.	.	.	8d\	-ae	8b\	-ae	8gg\	-ae
.	.	.	.	.	16ee\LL	.	.	.	.	.	.	.
!	!	!	!	!	!	!	!	!	!LO:TX:a:t=P:problem=słabo widoczna kreska taktowa	!	!	!
8B\J	.	.	8dd/J	.	16ff#X\	.	8d\	e-	8b\	e-	8gg\	e-
.	.	.	.	.	16gg\JJ	.	.	.	.	.	.	.
=9	=9	=9	=9	=9	=9	=9	=9	=9	=9	=9	=9	=9
*	*	*	*tremolo	*	*	*	*	*	*	*	*	*
*	*	*	*2\right	*	*	*	*	*	*	*	*	*
8A\L	6 3	.	8cc\L	.	16gg\LL	.	4d\	-mi-	4cc\	-mi-	4ff#X\	-mit-
.	.	.	.	.	16ff#X\J	.	.	.	.	.	.	.
8A\	.	.	8cc\	.	8.ff#\J	.	.	.	.	.	.	.
8A\	.	.	8cc\	.	.	.	4d\	-tett	4cc\	-tet	4ff#\	-tet
.	.	.	.	.	(16gg\LL	.	.	.	.	.	.	.
8A\J	.	.	8cc\J	.	16aa\	.	.	.	.	.	.	.
*	*	*	*Xtremolo	*	*	*	*	*	*	*	*	*
.	.	.	.	.	16ff#X\JJ)	.	.	.	.	.	.	.
!	!	!	!	!	!	!	!	!	!LO:LB:g=original	!	!	!
!LO:TX:a:t=P:problem=kropka po 3	!	!	!	!	!	!	!	!	!	!	!	!
8G\L	3	.	8b\L	.	16aa\LL	.	8.d\	Do-	8.b\	Do-	8.gg\	Do-
.	.	.	.	.	(16gg\	.	.	.	.	.	.	.
8G\	.	.	16b\L	.	16gg\	.	.	.	.	.	.	.
.	.	.	16a\JJ	.	16ff#X\JJ)	.	16d\	-mi-	16b\	-mi-	16gg\	-mi-
8G\	.	.	16b\LL	.	16gg\LL	.	8d\	-nus	8b\	-nus	8gg\	-nus
.	.	.	16cc\	.	16aa\	.	.	.	.	.	.	.
8G\J	.	.	16dd\	.	16bb\	.	8d\	ex	8b\	ex	8gg\	ex
.	.	.	16b\JJ	.	16gg\JJ	.	.	.	.	.	.	.
*Xtremolo	*	*	*	*	*	*	*	*	*	*	*	*
!	!	!	!	!	!LO:LB:g=original	!	!	!	!	!	!	!
=10	=10	=10	=10	=10	=10	=10	=10	=10	=10	=10	=10	=10
!LO:TX:a:t=P:problem=mixed beam	!	!	!LO:TX:a:t=h:problem=wysokośc poprawiana	!	!	!	!	!	!	!	!	!
8d\L	#4r	.	8b/L	.	8gg\L	.	8d\	Si-	8b\	Si-	8gg\	Si-
8D/	.	.	8a/	.	8ff#X\J	.	8d\	-on	8a\	-on	8ff#X\	-on
8d\	.	.	8a/	.	16ff#\LL	.	8d\	Do-	8a\	do-	8ff#\	do-
.	.	.	.	.	(16dd\	.	.	.	.	.	.	.
8c\J	.	.	8a/J	.	16ee\	.	8d\	-mi-	8a\	-mi-	8ff#\	-mi-
.	.	.	.	.	16ff#\JJ)	.	.	.	.	.	.	.
!	!	!	!LO:LB:g=original	!	!	!	!	!	!	!	!LO:LB:g=original	!
8B\L	6	.	8b\L	.	16gg\LL	.	8d\	-na-	8b\	-na-	8gg\	-na-
.	.	.	.	.	(16dd\	.	.	.	.	.	.	.
8G\	.	.	8dd\	.	16gg\)	.	16d\	-re	16b\	-re	16gg\	-re
.	.	.	.	.	16bb\JJ	.	16d\	in	16b\	in	16gg\	in
8F#X\	.	.	8dd\	.	16aa\LL	.	8d\	me-	8cc\	me-	8aa\	me-
.	.	.	.	.	16dd\	.	.	.	.	.	.	.
8D\J	6 5	.	8cc\J	.	16aa\	.	8d\	-di-	8cc\	-di-	8aa\	-di-
.	.	.	.	.	16ccc\JJ	.	.	.	.	.	.	.
!	!	!	!	!	!	!	!LO:LB:g=original	!	!	!	!	!
=11	=11	=11	=11	=11	=11	=11	=11	=11	=11	=11	=11	=11
8.G\L	.	.	(8.b\L	.	16bb\LL	.	8d\	-o	8b\	-o	8gg\	-o
.	.	.	.	.	(16aa\	.	.	.	.	.	.	.
.	.	.	.	.	16gg\	.	8d\	i-	8cc\	i-	16gg\LL	i-
16A\Jk	#6\	.	16cc\Jk)	.	16ff#X\JJ)	.	.	.	.	.	16ff#X\JJ	.
8B\L	6:	.	8dd\L|	.	16gg\LL	.	8d\	-ni-	8dd\	-ni-	8gg\	-ni-
.	.	.	.	.	16aa\	.	.	.	.	.	.	.
8B\J	.	.	8dd\J|	.	16bb\	.	8d\	-mi-	8dd\	-mi-	8gg\	-mi-
.	.	.	.	.	16gg\JJ	.	.	.	.	.	.	.
!LO:LB:g=original	!	!	!	!	!	!	!	!	!	!	!	!
!LO:TX:a:t=P:problem=mixed beam	!	!	!	!	!	!	!	!	!	!	!	!
8c\L	6:	.	8.ee\L	.	16aa\LL	.	8e\	-co-	8cc\	-co-	8ee\	-co-
.	.	.	.	.	16ccc\	.	.	.	.	.	.	.
8c\	.	.	.	.	16ee\	.	16e\	-rum	16cc\LL	-rum	16ee\	-rum
.	.	.	16cc\Jk	.	16aa\JJ	.	16e\	tu-	16a\JJ	.	16cc\	tu-
8d\	#4r	.	16cc\LL	.	16aa\LL	.	4d\	-o-	8g\L	tu-	8b\L	-o-
.	.	.	(16b\	.	(16gg\	.	.	.	.	.	.	.
8D/J	.	.	16b\	.	16gg\	.	.	.	8f#X\J	-o-	8a\J	.
.	.	.	16a\JJ)	.	16ff#X\JJ)	.	.	.	.	.	.	.
=12	=12	=12	=12	=12	=12	=12	=12	=12	=12	=12	=12	=12
!LO:TX:a:t=Solo	!	!	!	!	!	!	!	!	!	!	!	!
4G\	.	.	16b\LL	.	16gg\LL	.	4d\	-rum	4g\	-rum	4b\	-rum
.	.	.	(32a\L	.	(32ff#X\L	.	.	.	.	.	.	.
.	.	.	32b\JJJ)	.	32gg\JJJ)	.	.	.	.	.	.	.
.	.	.	16gg\LL|	.	16bb'\LL	.	.	.	.	.	.	.
.	.	.	16ff#X\JJ|	.	16aa'\JJ	.	.	.	.	.	.	.
8rF	.	.	16ee'\LL	.	16gg'\LL	.	4r	.	4r	.	4r	.
.	.	.	16dd'\	.	16ff#X'\	.	.	.	.	.	.	.
8G\	.	.	16cc'\	.	16ee'\	.	.	.	.	.	.	.
.	.	.	16b'\JJ	.	16dd'\JJ	.	.	.	.	.	.	.
!LO:TX:a:t=P:problem=mixed beam	!	!	!	!	!	!	!	!	!	!	!	!
8c\L	-	.	16b\LL	.	(16dd#X\LL	.	2r	.	2r	.	2r	.
.	.	.	(16cc\	.	16ee\	.	.	.	.	.	.	.
8c\	.	.	16cc\	.	16ee\	.	.	.	.	.	.	.
.	.	.	16a\JJ)	.	16cc\JJ)	.	.	.	.	.	.	.
8d\	4	.	16a/LL	.	16cc\LL	.	.	.	.	.	.	.
.	.	.	16g/	.	(16b\	.	.	.	.	.	.	.
8D/J	#	.	(16g/	.	16b\	.	.	.	.	.	.	.
.	.	.	16f#X/JJ)	.	16a\JJ)	.	.	.	.	.	.	.
!	!	!	!	!	!LO:LB:g=original	!	!	!	!LO:LB:g=original	!	!	!
=13	=13	=13	=13	=13	=13	=13	=13	=13	=13	=13	=13	=13
!	!	!LO:DY:a:t=Pia=	!	!LO:DY:a:t=pia	!	!LO:DY:b:t=pia=	!LO:TX:a:t=8.	!	!LO:TX:a:t=Solo	!	!LO:TX:a:t=4.	!
4G\	.	p	4g/	p	4b\	p	00r	.	8re	.	00r	.
.	.	.	.	.	.	.	.	.	8g\	Iu-	.	.
8rF	.	.	8r	.	8r	.	.	.	8b\	-ra-	.	.
8G\	.	.	8d/	.	8b\	.	.	.	8dd\	-vit	.	.
!LO:TX:a:t=P:problem=mixed beam	!	!	!	!	!	!	!	!	!	!	!	!
8d\L	4	.	4.d/	.	8.dd\L	.	.	.	8.b\	Do-	.	.
8D/J	#	.	.	.	.	.	.	.	.	.	.	.
.	.	.	.	.	16cc\Jk	.	.	.	16a\	-mi-	.	.
8G\L	3	.	.	.	8b\L	.	.	.	8g\	-nus	.	.
8G\J	.	.	8b\	.	8dd\J	.	.	.	16b\	et	.	.
.	.	.	.	.	.	.	.	.	16b\	non	.	.
=14	=14	=14	=14	=14	=14	=14	=14	=14	=14	=14	=14	=14
!LO:TX:a:t=P:problem=mixed beam	!	!	!	!	!	!	!	!	!	!	!	!
8c\L	6:	.	8.cc\L	.	8.ee\L	.	.	.	8cc\	poe-	.	.
8c\	.	.	.	.	.	.	.	.	16b\LL	-ni-	.	.
.	.	.	16a\Jk	.	16cc\Jk	.	.	.	16cc\JJ	.	.	.
8d\	4	.	16a/LL	.	16cc/LL	.	.	.	8dd\	-te-	.	.
.	.	.	16g/	.	(16b/	.	.	.	.	.	.	.
8D/J	#	.	16g/	.	16b/	.	.	.	8d\	-bit	.	.
.	.	.	16f#X/JJ	.	16a/JJ)	.	.	.	.	.	.	.
!	!	!	!LO:LB:g=original	!	!	!	!	!	!	!	!	!
!	!	!	!	!	!LO:N:vis=16	!	!	!	!	!	!	!
4G\	.	.	8g/L	.	8b/L	.	.	.	8g\	e-	.	.
.	.	.	32g/LL	.	32b/LL	.	.	.	8g\	-um	.	.
.	.	.	32a/	.	(32cc/	.	.	.	.	.	.	.
.	.	.	32b/	.	32dd/	.	.	.	.	.	.	.
.	.	.	32a/JJJ	.	32cc/JJJ)	.	.	.	.	.	.	.
8rF	.	.	8g/L	.	8b/L	.	.	.	8re	.	.	.
8G\	.	.	8g/J	.	8b/J	.	.	.	8g\	Tu	.	.
=15	=15	=15	=15	=15	=15	=15	=15	=15	=15	=15	=15	=15
4D\	#	.	4f#X/	.	2a/	.	.	.	8f#X\	es	.	.
.	.	.	.	.	.	.	.	.	8a\	Sa-	.	.
!	!	!	!	!	!	!	!	!	!LO:LB:g=original	!	!	!
4F#X\	6 5	.	4d/	.	.	.	.	.	8dd\	-cer-	.	.
.	.	.	.	.	.	.	.	.	8cc\	-dos	.	.
8G\L	.	.	2d/	.	4b/	.	.	.	8b\	in	.	.
8B\	6	.	.	.	.	.	.	.	16a\LL	ae-	.	.
.	.	.	.	.	.	.	.	.	16g\JJ	.	.	.
8d\	#	.	.	.	4a/	.	.	.	8.f#X\L	-ter-	.	.
8c\J	.	.	.	.	.	.	.	.	.	.	.	.
.	.	.	.	.	.	.	.	.	32e\LL	.	.	.
.	.	.	.	.	.	.	.	.	32f#\JJJ	.	.	.
=16	=16	=16	=16	=16	=16	=16	=16	=16	=16	=16	=16	=16
4B\	.	.	2d/	.	4b\	.	.	.	8g\	-num	.	.
.	.	.	.	.	.	.	.	.	8g\	Se-	.	.
.	.	.	.	.	16qqdd/	.	.	.	.	.	.	.
4F#X\	.	.	.	.	8cc\L	.	.	.	16b\LL	-cun-	.	.
.	.	.	.	.	.	.	.	.	16a\JJ	.	.	.
.	.	.	.	.	16b\L	.	.	.	16g\LL	-dum	.	.
.	.	.	.	.	16cc\JJ	.	.	.	16a\JJ	.	.	.
4G\	6 5	.	4d/	.	4b\	.	.	.	8b\L	or-	.	.
.	.	.	.	.	.	.	.	.	8cc\J	.	.	.
8rF	.	.	8rg	.	8r	.	.	.	8dd\L	-di-	.	.
8B\	6	.	8g/	.	8dd\	.	.	.	8b\J	.	.	.
!LO:LB:g=original	!	!	!	!	!	!	!	!	!	!	!	!
=17	=17	=17	=17	=17	=17	=17	=17	=17	=17	=17	=17	=17
4c\	6	.	4a/	.	4cc\	.	00r	.	8cc\L	-nem	2r	.
.	.	.	.	.	.	.	.	.	16b\L	Mel-	.	.
.	.	.	.	.	.	.	.	.	16cc\JJ	.	.	.
!LO:TX:a:t=P:problem=mixed beam	!	!	!	!	!	!	!	!	!	!	!	!
8d\L	4	.	8g/L	.	8b/L	.	.	.	8dd\	-chi-	.	.
8D/J	#	.	8f#X/J	.	8a/J	.	.	.	8d\	-se-	.	.
!LO:TX:a:t=P:problem=mixed beam	!	!	!	!	!	!	!	!	!	!	!LO:TX:a:t=Solo	!
8G\L	.	.	4g/	.	4b/	.	.	.	4g\	-dech	8.b\	Do-
8GG/J	.	.	.	.	.	.	.	.	.	.	.	.
.	.	.	.	.	.	.	.	.	.	.	16b\	-mi-
4r	.	.	16g/LL	.	16b/LL	.	.	.	4r	.	16b\LL	-nus
.	.	.	16f#X/	.	(16a/	.	.	.	.	.	16a\JJ	.
.	.	.	16g/	.	16b/	.	.	.	.	.	16b\LL	a
.	.	.	16a/JJ	.	16cc/JJ)	.	.	.	.	.	16cc\JJ	.
!	!	!	!	!	!	!	!	!	!LO:LB:g=original	!	!LO:LB:g=original	!
=18	=18	=18	=18	=18	=18	=18	=18	=18	=18	=18	=18	=18
8r	.	.	8b/L	.	8dd\L	.	.	.	8b\	dex-	8dd\	dex-
!LO:TX:a:t=P:problem=mixed beam	!	!	!	!	!	!	!	!	!	!	!	!
8G\L	.	.	16cc/L	.	16ee\L	.	.	.	16cc\LL	-tris	16ee\LL	-tris
.	.	.	16b/JJ	.	16dd\JJ	.	.	.	16b\JJ	.	16dd\JJ	.
.	.	.	8qqb/	.	8qqdd/	.	.	.	.	.	.	.
8d\	#7r	.	4a/	.	4cc\	.	.	.	4a\	tu-	4cc\	tu-
8D/J	.	.	.	.	.	.	.	.	.	.	.	.
!	!	!	!	!	!LO:LB:g=original	!	!	!	!	!	!	!
!LO:TX:a:t=P:problem=mixed beam	!	!	!	!	!	!	!	!	!	!	!	!
8G\L	.	.	8g/L	.	8b\L	.	.	.	8g\	-is	8b\	-is
8GG/J	.	.	8b/J	.	8dd\J	.	.	.	8b\	Con-	8dd\	Con-
8r	.	.	8b/L	.	8dd\L	.	.	.	8b\L	-fre-	8dd\L	-fre-
8G\	.	.	16cc/L	.	16ee\L	.	.	.	16cc\L	.	16ee\L	.
.	.	.	16b/JJ	.	16dd\JJ	.	.	.	16b\JJ	.	16dd\JJ	.
=19	=19	=19	=19	=19	=19	=19	=19	=19	=19	=19	=19	=19
.	.	.	.	.	16qqdd/	.	.	.	.	.	.	.
4D\	#7r	.	8a/L	.	8cc\L	.	.	.	8a\	-git	8cc\	-git
.	.	.	16a/L	.	16cc\L	.	.	.	16a\LL	in	8cc\	in
.	.	.	16g/JJ	.	16b\JJ	.	.	.	16g\JJ	.	.	.
4F#X\	6 5	.	8a/L	.	8cc\L	.	.	.	8a\	di-	8cc\	di-
.	.	.	8a/J	.	16dd\L	.	.	.	8a\	-ae	16dd\LL	-e
.	.	.	.	.	16cc\JJ	.	.	.	.	.	16cc\JJ	.
!	!	!	!LO:LB:g=original	!	!	!	!	!	!	!	!	!
4G\	.	.	16g/LL	.	16b\LL	.	.	.	16g\LL	i-	16b\LL	i-
.	.	.	16f#X/	.	(16a\	.	.	.	16f#X\	.	16a\	.
.	.	.	16g/	.	16b\	.	.	.	16g\	.	16b\	.
.	.	.	16a/JJ	.	16cc\JJ)	.	.	.	16a\JJ	.	16cc\JJ	.
8r	.	.	8b/L	.	(16dd\LL	.	.	.	8b\	.	16dd\LL	.
.	.	.	.	.	16ee\	.	.	.	.	.	16ee\JJ	.
8B\	6	.	8b/J	.	16ff#X\	.	.	.	8b\	-rae	16ff#X\LL	-rae
.	.	.	.	.	16gg\JJ)	.	.	.	.	.	16gg\JJ	.
=20	=20	=20	=20	=20	=20	=20	=20	=20	=20	=20	=20	=20
!LO:TX:a:t=P:problem=mixed beam	!	!	!	!	!	!	!	!	!	!	!	!
8c\L	6:	.	16cc/LL	.	16ee\LL	.	.	.	16cc\LL	Su-	16ee\LL	Su-
.	.	.	16b/	.	16dd\	.	.	.	16b\JJ	.	16dd\JJ	.
8c\	.	.	16cc/	.	16ee\	.	.	.	16cc\LL	-ae	16ee\LL	-ae
.	.	.	16a/JJ	.	16cc\JJ	.	.	.	16a\JJ	.	16cc\JJ	.
8d\	#4r	.	8g/L	.	8b/L	.	.	.	8g\	Re-	8b\L	re-
8D/J	.	.	8f#X/J	.	8a/J	.	.	.	8f#X\	.	8a\J	.
!	!	!	!	!	!	!LO:HP:t=cres	!	!	!	!	!	!
4G\	.	.	8g/L	.	8b\L	<	.	.	4g\	-ges	4b\	-gis
.	.	.	16a/L	.	16cc\L	.	.	.	.	.	.	.
.	.	.	16b/JJ	.	16dd\JJ	.	.	.	.	.	.	.
4r	.	.	16b/LL	.	16dd\LL	.	.	.	4r	.	4r	.
.	.	.	16cc/	.	(16ee\	.	.	.	.	.	.	.
.	.	.	16cc/	.	16ee\	.	.	.	.	.	.	.
.	.	.	16a/JJ	.	16ff#X\JJ)	.	.	.	.	.	.	.
!	!	!	!	!	!	!	!	!	!LO:PB:g=original	!	!	!
=21	=21	=21	=21	=21	=21	=21	=21	=21	=21	=21	=21	=21
*tremolo	*	*	*tremolo	*	*	*	*	*	*	*	*	*
!LO:TX:a:t=Tutti	!	!	!	!LO:DY:b:t=for.	!	!	!	!	!	!	!LO:TX:a:t=Tutti&colon;	!
8G\L	.	.	16g/LL	f	8gg\L	.	4d\	Iu-	4b\	Iu-	4dd\	Iu-
.	.	.	16b/	.	.	.	.	.	.	.	.	.
!	!	!	!	!	!	!LO:DY:b:t=for.	!	!	!	!	!	!
8G\	.	.	16g/	.	16b\L	f	.	.	.	.	.	.
.	.	.	16b/	.	16cc\JJ	.	.	.	.	.	.	.
8G\	.	.	16g/	.	8dd\L|	.	4d\	-di-	4b\	-di-	4dd\	-di-
.	.	.	16b/	.	.	.	.	.	.	.	.	.
8G\J	.	.	16g/	.	8dd\J|	.	.	.	.	.	.	.
.	.	.	16b/JJ	.	.	.	.	.	.	.	.	.
8G#X\L	6 5	.	16e/LL	.	(8.dd\L	.	4e\	-ca-	4b\	-ca-	4dd\	-ca-
.	.	.	16b/	.	.	.	.	.	.	.	.	.
8G#X\	.	.	16e/	.	.	.	.	.	.	.	.	.
.	.	.	16b/	.	32cc\LL	.	.	.	.	.	.	.
.	.	.	.	.	32dd\JJJ)	.	.	.	.	.	.	.
8G#X\	.	.	16e/	.	8ee\L	.	8e\	-bit	8b\	-bit	8ee\	-bit
.	.	.	16b/	.	.	.	.	.	.	.	.	.
8G#X\J	.	.	16e/	.	8dd\J	.	8e\	in	8b\	in	8dd\	in
.	.	.	16b/JJ	.	.	.	.	.	.	.	.	.
*	*	*	*Xtremolo	*	*	*	*	*	*	*	*	*
!	!	!	!	!	!	!	!	!	!	!	!LO:LB:g=original	!
=22	=22	=22	=22	=22	=22	=22	=22	=22	=22	=22	=22	=22
8A\L	n	.	8.cc\L	.	16cc\LL	.	4e\	na-	4a\	na-	4cc\	na-
.	.	.	.	.	16ee\	.	.	.	.	.	.	.
8A\	.	.	.	.	16aa\	.	.	.	.	.	.	.
.	.	.	16ee\Jk	.	16gg#X\JJ	.	.	.	.	.	.	.
8A\	.	.	16dd\LL	.	(16ff\LL	.	4e\	-ti-	4a\	-ti-	4cc\	-ti-
.	.	.	16cc\	.	16ee\	.	.	.	.	.	.	.
8A\J	.	.	16b\	.	16dd\	.	.	.	.	.	.	.
.	.	.	16a\JJ	.	16cc\JJ)	.	.	.	.	.	.	.
!	!	!	!	!	!LO:LB:g=original	!	!	!	!	!	!	!
8E\L	#4r	.	8.a/L	.	(8.cc\L	.	8.e\	-o-	8.a\	-o-	8.cc\	-o-
8E\	.	.	.	.	.	.	.	.	.	.	.	.
.	.	.	(32b/LL	.	32dd\LL	.	16e\	-ni-	16a\	-ni-	16cc\	-ni-
.	.	.	32a/JJJ)	.	32cc\JJJ)	.	.	.	.	.	.	.
8E\	.	.	8g#X/L|	.	16b\LL	.	8e\	-bus	8g#X\	-bus	8b\	-bus
.	.	.	.	.	(16cc\	.	.	.	.	.	.	.
8E\J	.	.	8g#/J|	.	16dd\	.	8e\	im-	8g#\	im-	8b\	im-
.	.	.	.	.	16ee\JJ)	.	.	.	.	.	.	.
!LO:LB:g=original	!	!	!	!	!	!	!LO:LB:g=original	!	!	!	!	!
=23	=23	=23	=23	=23	=23	=23	=23	=23	=23	=23	=23	=23
8E\L	#4r	.	(8.a/L	.	(8.cc\L	.	4e\	-ple-	4a\	-ple-	4cc\	-ple-
8E\	.	.	.	.	.	.	.	.	.	.	.	.
.	.	.	32b/LL	.	32dd\LL	.	.	.	.	.	.	.
.	.	.	32a/JJJ)	.	32cc\JJJ)	.	.	.	.	.	.	.
!	!	!	!LO:LB:g=original	!	!	!	!	!	!	!	!	!
8E\	.	.	8g#X/L	.	16b\LL	.	8e\	-bit	8g#X\	-bit	8b\	-bit
.	.	.	.	.	(16cc\	.	.	.	.	.	.	.
8E\J	.	.	8g#/J	.	16dd\	.	8e\	im-	8g#\	im-	8b\	im-
.	.	.	.	.	16ee\JJ)	.	.	.	.	.	.	.
!	!	!	!LO:TX:a:t=h:problem=wysokość poprawiana	!	!	!	!	!	!	!	!	!
8A\L	n	.	16b/LL	.	16dd\LL	.	4e\	-ple-	4a\	-ple-	4cc\	-ple-
.	.	.	(16a/	.	(16cc\	.	.	.	.	.	.	.
8A\	.	.	16g#X/	.	16b\	.	.	.	.	.	.	.
.	.	.	16a/JJ)	.	16cc\JJ)	.	.	.	.	.	.	.
8A\	.	.	8cc\L|	.	(16a\LL	.	8e\	-bit	8a\	-bit	8cc\	-bit
.	.	.	.	.	16cc\	.	.	.	.	.	.	.
8A\J	.	.	8cc\J|	.	16ee\	.	8e\	ru-	8a\	ru-	8cc\	ru-
.	.	.	.	.	16aa\JJ)	.	.	.	.	.	.	.
*Xtremolo	*	*	*	*	*	*	*	*	*	*	*	*
=24	=24	=24	=24	=24	=24	=24	=24	=24	=24	=24	=24	=24
8E\L	.	.	8b/L	.	8gg#X\L	.	8e\	-i-	8g#X\	-i-	8b\	-i-
8E\	.	.	16b/L	.	16gg#\L	.	8e\	-nas	8g#\	-nas	8b\	-nas
.	.	.	16a/JJ	.	16ff\JJ	.	.	.	.	.	.	.
8e\	#	.	8b\L	.	16gg#X\LL	.	8e\	Con-	8g#\	Con-	8b\	con-
.	.	.	.	.	16bb\	.	.	.	.	.	.	.
8d\J	.	.	8b\J	.	16ee\	.	8e\	-quaſ-	8g#\	-quaſ-	8b\	-quaſ-
.	.	.	.	.	16gg#\JJ	.	.	.	.	.	.	.
*	*	*	*tremolo	*	*	*	*	*	*	*	*	*
8c\L	6:	.	8cc\L	.	16gg#\LL	.	8e\	-sa-	8a\	-sa-	8cc\	-sa-
.	.	.	.	.	16aa\J	.	.	.	.	.	.	.
8c\	.	.	8cc\	.	8.aa\J	.	8e\	-bit	8a\	-bit	8cc\	[bit]
!	!	!	!	!	!	!	!	!	!LO:LB:g=original	!	!	!
8A\	.	.	8cc\	.	.	.	8e\	ca-	8a\	ca-	8cc\	ca-
.	.	.	.	.	16gg#X\LL	.	.	.	.	.	.	.
8A\J	.	.	8cc\J	.	16ff\	.	8e\	-pi-	8a\	-pi-	8cc\	-pi-
*	*	*	*Xtremolo	*	*	*	*	*	*	*	*	*
.	.	.	.	.	16ee\JJ	.	.	.	.	.	.	.
=25	=25	=25	=25	=25	=25	=25	=25	=25	=25	=25	=25	=25
!LO:TX:a:t=P:problem=mixed beam	!	!	!	!	!	!	!	!	!	!	!	!
8G#X\L	6 5	.	8b\L	.	16ee\LL	.	8e\	-ta	8b\	-ta	8.dd\	-ta
.	.	.	.	.	16dd\JJ	.	.	.	.	.	.	.
8E\	.	.	8b\J	.	4dd\	.	8e\	in	8b\	in	.	.
.	.	.	.	.	.	.	.	.	.	.	16dd\	in
8A\	.	.	8e/L	.	.	.	4e\	ter-	4a\	ter-	8dd\L	te-
8AA/J	.	.	8e/J	.	8cc\	.	.	.	.	.	8cc\J	.
!	!	!	!	!	!	!	!	!	!	!	!LO:LB:g=original	!
!LO:TX:a:t=P:problem=mixed beam	!	!	!LO:TX:a:t=P:problem=mixed beam	!	!	!	!	!	!	!	!	!
8D\L	6:	.	8f/L	.	(16cc#X\LL	.	8f\	-ra	8b\	-ra	8dd\	-ta
.	.	.	.	.	16dd\	.	.	.	.	.	.	.
8D\	.	.	16dd\L	.	16ff\	.	8f\	mul-	8b\	mul-	16ff\LL	mul-
.	.	.	16cc\JJ	.	16dd\JJ)	.	.	.	.	.	16dd\JJ	.
8E\	4	.	16b/LL	.	16dd\LL	.	4e\	-to-	8a\L	-to-	8cc\L	-to-
.	.	.	16a/	.	(16ccn\	.	.	.	.	.	.	.
8EE/J	#	.	16a/	.	16cc\	.	.	.	8g#X\J	.	8b\J	.
.	.	.	16g#X/JJ	.	16b\JJ)	.	.	.	.	.	.	.
!	!	!	!	!	!LO:LB:g=original	!	!	!	!	!	!	!
=26	=26	=26	=26	=26	=26	=26	=26	=26	=26	=26	=26	=26
!LO:TX:a:t=Solo	!	!	!LO:TX:a:t=P:problem=mixed beam	!	!	!	!	!	!	!	!	!
4AA/	.	.	8a/L	.	16cc\LL	.	4e\	-rum	4a\	-rum	4cc\	-rum
.	.	.	.	.	(32b\L	.	.	.	.	.	.	.
.	.	.	.	.	32cc\JJJ)	.	.	.	.	.	.	.
.	.	.	16aa\L	.	16ccc\LL	.	.	.	.	.	.	.
.	.	.	16gg#X\JJ	.	16bb\JJ	.	.	.	.	.	.	.
8r	.	.	16ff\LL	.	16aa\LL	.	4r	.	4re	.	4r	.
.	.	.	16ee\	.	16gg#X\	.	.	.	.	.	.	.
8A\	.	.	16dd\	.	16ff\	.	.	.	.	.	.	.
.	.	.	16cc\JJ	.	16ee\JJ	.	.	.	.	.	.	.
!LO:TX:a:t=P:problem=mixed beam	!	!	!	!	!	!	!	!	!	!	!	!
8D\L	6	.	(16cc\LL	.	16ee\LL	.	2r	.	2r	.	2r	.
.	.	.	16b\	.	(16dd\	.	.	.	.	.	.	.
8D\	.	.	16dd\	.	16ff\	.	.	.	.	.	.	.
.	.	.	16b\JJ)	.	16dd\JJ)	.	.	.	.	.	.	.
8E\	#4r	.	16b/LL	.	16dd\LL	.	.	.	.	.	.	.
.	.	.	16a/	.	(16cc\	.	.	.	.	.	.	.
8EE/J	.	.	16a/	.	16cc\)	.	.	.	.	.	.	.
.	.	.	16g#X/JJ	.	16b\JJ	.	.	.	.	.	.	.
!	!	!	!LO:LB:g=original	!	!	!	!LO:LB:g=original	!	!	!	!	!
=27	=27	=27	=27	=27	=27	=27	=27	=27	=27	=27	=27	=27
!	!	!LO:DY:a:t=pia	!	!LO:DY:a:t=p.	!	!LO:DY:b:t=piano	!LO:TX:a:t=Solo	!	!LO:TX:a:t=Sol	!	!LO:TX:a:t=7.	!
8AA/L	.	p	4.a/	p	4.cc\	p	4.e\	De	4.cc\	De	00r	.
8AA/	.	.	.	.	.	.	.	.	.	.	.	.
8C/	.	.	.	.	.	.	.	.	.	.	.	.
8E/J	7 #	.	8b/	.	8dd\	.	8d\	do-	8b\	to-	.	.
4A\	.	.	8b/L	.	8dd\L	.	8d\L	-ren-	8b\L	-ren-	.	.
.	.	.	8a/J	.	8cc\	.	8c\J	.	8a\J	.	.	.
8AA/	.	.	8a/	.	8cc\J	.	8c\	-te	8a\	-te	.	.
!	!	!	!LO:TX:b:t=Vertatur Citiſsimo	!	!	!	!	!	!	!	!	!
8r	.	.	8r	.	8r	.	8e\	in	8cc\	in	.	.
!	!	!	!LO:PB:g=original	!	!	!	!	!	!	!	!	!
=28	=28	=28	=28	=28	=28	=28	=28	=28	=28	=28	=28	=28
8r	.	.	8r	.	8r	.	4.d\	vi-	4.b\	vi-	.	.
8E\L	7: #:	.	8g#X/L	.	8b\L	.	.	.	.	.	.	.
8G#X\	.	.	8e/	.	8b\	.	.	.	.	.	.	.
8A\J	X n	.	8e/J	.	8cc\J	.	8c\	-a	8a\	-a	.	.
4E\	#	.	8a/L	.	8cc\L	.	8c\L	bi-	8a\L	bi-	.	.
.	.	.	8g#X/	.	8b\J	.	8B\J	.	8g#X\J	.	.	.
8EE/	.	.	8g#/	.	8b\	.	8B\	-bet	8g#\	-bet	.	.
8rBB	.	.	8b/J	.	8r	.	8B\	prop-	8re	.	.	.
!LO:LB:g=original	!	!	!	!	!	!	!	!	!LO:LB:g=original	!	!	!
=29	=29	=29	=29	=29	=29	=29	=29	=29	=29	=29	=29	=29
2E\	9 7 #	.	(8.ee\L	.	4r	.	8.e\L	-ter-	4r	.	.	.
.	.	.	16ff\Jk)	.	.	.	16f\Jk	.	.	.	.	.
!	!	!	!	!	!LO:TX:b:t=citiſsimo	!	!	!	!	!	!	!
.	.	.	8ee\L|	.	8r	.	8e\	-e-	8r	.	.	.
!	!	!	!	!	!LO:PB:g=original	!	!	!	!	!	!	!
.	.	.	8dd\J|	.	8gg#X\	.	8d\	-a	8g#X\	prop-	.	.
2A\	9 n7r #	.	4.cc#X\	.	8.aa\L	.	4.c#X\	e-	8.a\L	-te-	.	.
.	.	.	.	.	16bb\Jk	.	.	.	16b\Jk	.	.	.
.	.	.	.	.	8aa\L	.	.	.	8a\	-re-	.	.
.	.	.	16b\LL	.	8ggn\J	.	16B\LL	-xal-	8gn\	-a	.	.
.	.	.	16cc#\JJ	.	.	.	16c#\JJ	.	.	.	.	.
=30	=30	=30	=30	=30	=30	=30	=30	=30	=30	=30	=30	=30
2D\	9 n7 #	.	8.dd\L	.	4.ff#X\	.	8.d\L	-ta-	4.f#X\	e-	.	.
.	.	.	16ee\Jk	.	.	.	16e\Jk	.	.	.	.	.
.	.	.	8dd\L	.	.	.	8d\L	.	.	.	.	.
.	.	.	8ccn\J	.	16ee\LL	.	8cn\J	.	16e\LL	-xal-	.	.
.	.	.	.	.	16ff#\JJ	.	.	.	16f#\JJ	.	.	.
!	!	!	!	!	!	!	!LO:LB:g=original	!	!	!	!	!
2Gn\	9 n7 3	.	8.b/L	.	8.gg\L	.	4.B\	.	8.g\L	-ta-	.	.
.	.	.	(32a/LL	.	16aa\Jk	.	.	.	16a\Jk	.	.	.
.	.	.	32b/JJJ)	.	.	.	.	.	.	.	.	.
.	.	.	8a/L	.	8gg\L	.	.	.	8g\L	.	.	.
.	.	.	8b/J	.	8ffn\J	.	16A\LL	.	8fn\J	.	.	.
.	.	.	.	.	.	.	16B\JJ	.	.	.	.	.
=31	=31	=31	=31	=31	=31	=31	=31	=31	=31	=31	=31	=31
!LO:TX:a:t=P:problem=mixed beam	!	!	!	!	!	!	!	!	!	!	!	!
8C\L	.	.	16cc\LL	.	16ee\LL	.	16c\LL	.	16e\LL	.	0r	.
.	.	.	16ee\J	.	16gg\J	.	16e\J	.	16g\JJ	.	.	.
8C\	.	.	8.ee\J	.	8.gg\J	.	8.e\J	.	8.g\	.	.	.
8G\	.	.	.	.	.	.	.	.	.	.	.	.
!	!	!	!LO:SIC:s=16dd\LL:v	!	!	!	!	!	!	!	!	!
!	!	!	!LO:TX:a:t=d	!	!	!	!	!	!	!	!	!
.	.	.	16ee\LL	.	16ff\LL	.	16d\LL	.	16f\	.	.	.
8GG/J	.	.	16cc\	.	16ee\	.	16c\	.	16e\LL	.	.	.
.	.	.	16b\JJ	.	16dd\JJ	.	16B\JJ	.	16d\JJ	.	.	.
!	!	!	!LO:LB:g=original	!	!	!	!	!	!	!	!	!
!LO:TX:a:t=P:problem=mixed beam	!	!	!	!	!	!	!	!	!	!	!	!
8C\L	.	.	16cc\LL	.	16ee\LL	.	16c\LL	.	16e\LL	.	.	.
.	.	.	16ee\J	.	16gg\J	.	16e\J	.	16g\J	.	.	.
8C\	.	.	8.ee\J	.	8.gg\J	.	8.e\J	.	8.g\J	.	.	.
8G\	.	.	.	.	.	.	.	.	.	.	.	.
.	.	.	16dd\LL	.	16ff\LL	.	16d\LL	.	16f\LL	.	.	.
8GG/J	.	.	16cc\	.	16ee\	.	16c\	.	16e\	.	.	.
.	.	.	16b\JJ	.	16dd\JJ	.	16B\JJ	.	16d\JJ	.	.	.
=32	=32	=32	=32	=32	=32	=32	=32	=32	=32	=32	=32	=32
!LO:TX:a:t=P:problem=mixed beam	!	!	!	!	!	!	!	!	!	!	!	!
8C\L	.	.	16cc\LL	.	16ee\LL	.	16c\LL	.	16e\LL	.	.	.
.	.	.	16ee\	.	16gg\	.	16e\JJ	.	16g\JJ	.	.	.
8F\	6	.	16ff\	.	16aa\	.	16f\LL	-bit	16a\LL	-bit	.	.
.	.	.	16dd\JJ	.	16ff\JJ	.	16d\JJ	.	16f\JJ	.	.	.
8G\	4	.	8cc\L	.	8ee\L	.	8c\L	ca-	8e\L	ca-	.	.
8GG/J	3	.	8b\J	.	8dd\J	.	8B\J	.	8d\J	.	.	.
!	!	!	!	!LO:DY:a:t=for.	!	!	!	!	!	!	!	!
4C/	.	.	16cc\LL	f	(16ee\LL	.	4c\	-put.	4e\	-put	.	.
.	.	.	16b\	.	16dd\	.	.	.	.	.	.	.
.	.	.	16cc\	.	16ee\	.	.	.	.	.	.	.
.	.	.	16dd\JJ	.	16ff\JJ)	.	.	.	.	.	.	.
8r	.	.	8ee\L|	.	16gg\LL	.	4r	.	4r	.	.	.
.	.	.	.	.	(16ee\	.	.	.	.	.	.	.
8C/	.	.	8ee\J|	.	16aa\	.	.	.	.	.	.	.
.	.	.	.	.	16gg\JJ)	.	.	.	.	.	.	.
!	!	!	!	!	!	!	!	!	!LO:LB:g=original	!	!	!
=33	=33	=33	=33	=33	=33	=33	=33	=33	=33	=33	=33	=33
!	!	!	!	!	!	!	!LO:TX:a:t=I:problem=nad "I" znajduje się daszek	!	!LO:TX:a:t=I:problem=nad "I" znajduje się daszek	!	!	!
4BB/	8 5	.	8.dd\L	.	8.gg\L	.	1r	.	1r	.	1r	.
.	.	.	(32ee\LL	.	16ff\Jk	.	.	.	.	.	.	.
.	.	.	32dd\JJJ)	.	.	.	.	.	.	.	.	.
!	!	!	!	!	!LO:LB:g=original	!	!	!	!	!	!	!
.	.	.	.	.	16qqff/	.	.	.	.	.	.	.
8C\L	.	.	8cc\L|	.	8ee\L	.	.	.	.	.	.	.
8E\J	6	.	8g\J|	.	16dd\L	.	.	.	.	.	.	.
.	.	.	.	.	16cc\JJ	.	.	.	.	.	.	.
!LO:TX:a:t=P:problem=mixed beam	!	!	!	!	!	!	!	!	!	!	!	!
8F\L	6:	.	8.a/L	.	16cc#X\LL	.	.	.	.	.	.	.
.	.	.	.	.	(16dd\	.	.	.	.	.	.	.
8F\	.	.	.	.	16ff\	.	.	.	.	.	.	.
.	.	.	16f/Jk	.	16dd\JJ)	.	.	.	.	.	.	.
8G\	4	.	16f/LL	.	16dd\LL	.	.	.	.	.	.	.
.	.	.	(16e/	.	(16ccn\	.	.	.	.	.	.	.
8GG/J	3	.	16e/	.	16cc\	.	.	.	.	.	.	.
.	.	.	16d/JJ)	.	16b\JJ)	.	.	.	.	.	.	.
=34	=34	=34	=34	=34	=34	=34	=34	=34	=34	=34	=34	=34
!	!	!	!	!	!	!LO:DY:b:t=for	!	!	!	!	!	!
4C/	.	.	4e/	.	4cc 4e/	f	8r	.	8re	.	8r	.
.	.	.	.	.	.	.	8c\	Glo-	8cc\	Glo-	8cc\	Glo-
4r	.	.	4r	.	4r	.	8c\	-ri-	8cc\	-ri-	8cc\	-ri-
.	.	.	.	.	.	.	8c\	-a	8cc\	-a	8cc\	-a
*	*	*	*	*	*	*	*	*	*2\right	*	*	*
8r	.	.	8r	.	8r	.	2c\	Pa-	2cc\	Pa-	2cc\	Pa-
16C/LL	.	.	16e/LL	.	16e/LL	.	.	.	.	.	.	.
16D/JJ	.	.	16f/JJ	.	16f/JJ	.	.	.	.	.	.	.
16E\LL	.	.	16g/LL	.	16g/LL	.	.	.	.	.	.	.
16F\	.	.	(16a/	.	(16a/	.	.	.	.	.	.	.
16E\	.	.	16g/	.	16g/	.	.	.	.	.	.	.
16D\JJ	.	.	16f/JJ)	.	16f/JJ)	.	.	.	.	.	.	.
!	!	!	!LO:LB:g=original	!	!	!	!	!	!	!	!	!
!	!	!	!	!	!	!	!LO:PB:g=original	!	!	!	!	!
=35	=35	=35	=35	=35	=35	=35	=35	=35	=35	=35	=35	=35
4C/	.	.	4e/	.	4e/	.	8c\	-tri	8cc\	-tri	8cc\	-tri
.	.	.	.	.	.	.	8c\	Glo-	8cc\	Glo-	8cc\	glo-
4rE	.	.	4r	.	4r	.	8c\	-ri-	8cc\	-ri-	8cc\	-ri-
.	.	.	.	.	.	.	8c\	-a	8cc\	-a	8cc\	-a
!LO:LB:g=original	!	!	!	!	!	!	!	!	!	!	!	!
8r	.	.	8r	.	8r	.	4.c\	Fi-	4.cc\	Fi-	4.cc\	Fi-
16C/LL	.	.	16e/LL	.	16e/LL	.	.	.	.	.	.	.
16D/JJ	.	.	16f/JJ	.	16f/JJ	.	.	.	.	.	.	.
16E\LL	.	.	16g/LL	.	16g/LL	.	.	.	.	.	.	.
16F\	.	.	16a/	.	(16a/	.	.	.	.	.	.	.
16E\	.	.	16g/	.	16g/	.	8c\	-li-	8cc\	-li-	8cc\	-li-
16D\JJ	.	.	16f/JJ	.	16f/JJ)	.	.	.	.	.	.	.
=36	=36	=36	=36	=36	=36	=36	=36	=36	=36	=36	=36	=36
4C/	.	.	4e/	.	4e/	.	8c\	-o	8cc\	-o	8cc\	-o
.	.	.	.	.	.	.	8c\	et	8cc\	et	8cc\	et
4r	.	.	4r	.	4r	.	8B\	Spi-	8b\	Spi-	8b\	Spi-
.	.	.	.	.	.	.	8A\	-ri-	8a\	-ri-	8a\	-ri-
2rBB	.	.	2rg	.	2rg	.	8G/	-tu-	8g\	-tu-	8g\	-tu-
.	.	.	.	.	.	.	8G/	-i	16f\LL	-i	8cc\	-i
.	.	.	.	.	.	.	.	.	16e\JJ	.	.	.
.	.	.	.	.	.	.	8A/L	San-	4d\	San-	8cc\L	San-
.	.	.	.	.	.	.	8G/J	.	.	.	8b\J	.
!	!	!	!	!	!	!	!	!	!	!	!LO:LB:g=original	!
=37	=37	=37	=37	=37	=37	=37	=37	=37	=37	=37	=37	=37
*tremolo	*	*	*tremolo	*	*	*	*	*	*	*	*	*
8c\L	.	.	16e/LL	.	(8.cc\L	.	8G/	-cto	8e\	-cto	8cc\	-cto
.	.	.	16g/	.	.	.	.	.	.	.	.	.
8c\	.	.	16e/	.	.	.	16c\	Si-	16g\	Si-	16ee\	Si-
.	.	.	16g/	.	16ee\Jk)	.	16c\	-cut	16g\	-cut	16ee\	-cut
!	!	!	!	!	!	!	!	!	!LO:LB:g=original	!	!	!
8c\	.	.	16e/	.	8gg\L|	.	8c\	e-	8g\	e-	8ee\	e-
.	.	.	16g/	.	.	.	.	.	.	.	.	.
8c\J	.	.	16e/	.	8gg\J|	.	8c\	-rat	8g\	-rat	8ee\	-rat
.	.	.	16g/JJ	.	.	.	.	.	.	.	.	.
*	*	*	*Xtremolo	*	*	*	*	*	*	*	*	*
8B\L	6 5	.	16f/LL	.	8.gg\L	.	8d\	in	8g\	in	8dd\	in
.	.	.	16g/	.	.	.	.	.	.	.	.	.
8B\	.	.	16f/	.	.	.	8d\	prin-	8g\	prin-	8dd\	prin-
.	.	.	16g/JJ	.	16ff\Jk	.	.	.	.	.	.	.
!	!	!	!	!	!	!	!LO:LB:g=original	!	!	!	!	!
8B\	.	.	16d/LL	.	16dd\LL	.	8d\	-ci-	8g\	-ci-	8dd\	-ci-
.	.	.	16g/	.	(16ee\	.	.	.	.	.	.	.
8B\J	.	.	16d/	.	16ff\	.	8d\	-pi-	8g\	-pi-	8dd\	[pi]-
.	.	.	16g/JJ	.	16gg\JJ)	.	.	.	.	.	.	.
=38	=38	=38	=38	=38	=38	=38	=38	=38	=38	=38	=38	=38
*	*	*	*tremolo	*	*	*	*	*	*	*	*	*
8c\L	.	.	16e/LL	.	8ee\L|	.	8c\	-o-	8g\	-o	8ee\	-o
.	.	.	16g/	.	.	.	.	.	.	.	.	.
8c\	.	.	16e/	.	(32cc\LL	.	8c\	-et	8g\	et	8ee\	et
.	.	.	.	.	32dd\	.	.	.	.	.	.	.
.	.	.	16g/	.	32ee\	.	.	.	.	.	.	.
!	!	!	!	!	!LO:TX:a:t=P:problem=łuk wygląda, jakby kończył się w kolejnej linii	!	!	!	!	!	!	!
.	.	.	.	.	32ff\JJJ)	.	.	.	.	.	.	.
!	!	!	!	!	!LO:LB:g=original	!	!	!	!	!	!	!
8c\	.	.	16e/	.	8gg\L	.	8c\	nuñc	8g\	nuñc	8ee\	nuñc
.	.	.	16g/	.	.	.	.	.	.	.	.	.
8c\J	.	.	16e/	.	8gg\J	.	8c\	et	8g\	et	8ee\	et
.	.	.	16g/JJ	.	.	.	.	.	.	.	.	.
*	*	*	*Xtremolo	*	*	*	*	*	*	*	*	*
8B\L	6 5	.	16f/LL	.	8.gg\L	.	8d\	Sem-	8g\	Sem-	8dd\	Sem-
.	.	.	16g/	.	.	.	.	.	.	.	.	.
8B\	.	.	16f/	.	.	.	8d\	-per	8g\	-per	8dd\	-per
.	.	.	16g/JJ	.	16ff\Jk	.	.	.	.	.	.	.
8B\	.	.	16d/LL	.	16dd\LL	.	8d\	et	8g\	et	8dd\	et
.	.	.	16g/	.	(16ee\	.	.	.	.	.	.	.
8B\J	.	.	16d/	.	16ff\	.	8d\	in	8g\	in	8dd\	in
.	.	.	16g/JJ	.	16gg\JJ)	.	.	.	.	.	.	.
=39	=39	=39	=39	=39	=39	=39	=39	=39	=39	=39	=39	=39
*	*	*	*tremolo	*	*	*	*	*	*	*	*	*
8c\L	.	.	16e/LL	.	8.ee\L	.	4c\	Sae-	4g\	Sae-	4ee\	Sae-
.	.	.	16g/	.	.	.	.	.	.	.	.	.
8c\	.	.	16e/	.	.	.	.	.	.	.	.	.
.	.	.	16g/	.	(32cc\LL	.	.	.	.	.	.	.
.	.	.	.	.	32dd\JJJ)	.	.	.	.	.	.	.
8c\	.	.	16e/	.	8ee'\L	.	8c\	-cu-	8g\	-cu-	8ee\	-cu-
.	.	.	16g/	.	.	.	.	.	.	.	.	.
8c\J	.	.	16e/	.	8ee'\J	.	8c\	-la	8g\	-la	8ee\	-la
.	.	.	16g/JJ	.	.	.	.	.	.	.	.	.
!	!	!	!LO:TX:a:t=P:problem=mixed beam	!	!	!	!	!	!	!	!	!
8A\L	.	.	16e/LL	.	8.ee\L	.	4c\	Sae-	4a\	Sae-	4ee\	Sae-
.	.	.	16cc\	.	.	.	.	.	.	.	.	.
8A\	.	.	16e/	.	.	.	.	.	.	.	.	.
.	.	.	16cc\	.	(32cc\LL	.	.	.	.	.	.	.
.	.	.	.	.	32dd\JJJ)	.	.	.	.	.	.	.
8A\	.	.	16e/	.	8ee\L|	.	4c\	-cu-	4a\	-cu-	4ee\	-cu-
.	.	.	16cc\	.	.	.	.	.	.	.	.	.
8A\J	.	.	16e/	.	8ee\J|	.	.	.	.	.	.	.
.	.	.	16cc\JJ	.	.	.	.	.	.	.	.	.
!	!	!	!LO:LB:g=original	!	!	!	!	!	!	!	!	!
!	!	!	!	!	!	!	!	!	!	!	!LO:PB:g=original	!
=40	=40	=40	=40	=40	=40	=40	=40	=40	=40	=40	=40	=40
8F#X\L	6 5	.	16a/LL	.	(8.dd\L	.	4c\	-lo-	4a\	-lo-	4dd\	-lo-
.	.	.	16cc/	.	.	.	.	.	.	.	.	.
8F#X\	.	.	16a/	.	.	.	.	.	.	.	.	.
.	.	.	16cc/	.	32ff\LL	.	.	.	.	.	.	.
.	.	.	.	.	32ee\JJJ)	.	.	.	.	.	.	.
8F#X\	.	.	16a/	.	8dd'\L	.	4c\	-rum	4a\	-rum	4dd\	-rum
.	.	.	16cc/	.	.	.	.	.	.	.	.	.
8F#X\J	.	.	16a/	.	8dd\J|	.	.	.	.	.	.	.
.	.	.	16cc/JJ	.	.	.	.	.	.	.	.	.
*	*	*	*Xtremolo	*	*	*	*	*	*	*	*	*
!	!	!	!	!	!	!	!	!	!	!	!LO:TX:a:t=P:problem=niejasny zapis	!
8G\L	3	.	16b/LL	.	(8.dd\L	.	2B\	A-	2g\	a-	2dd\	A-
.	.	.	16g/	.	.	.	.	.	.	.	.	.
8G\	.	.	16b/	.	.	.	.	.	.	.	.	.
.	.	.	16dd/JJ	.	32ee\LL	.	.	.	.	.	.	.
.	.	.	.	.	32ff\JJJ)	.	.	.	.	.	.	.
8G\	.	.	8.b/L	.	16gg\LL	.	.	.	.	.	.	.
.	.	.	.	.	(16ff\	.	.	.	.	.	.	.
8G\J	.	.	.	.	16ee\	.	.	.	.	.	.	.
.	.	.	32a/LL	.	16dd\JJ)	.	.	.	.	.	.	.
.	.	.	32b/JJJ	.	.	.	.	.	.	.	.	.
!	!	!	!	!	!	!	!	!	!LO:LB:g=original	!	!	!
=41	=41	=41	=41	=41	=41	=41	=41	=41	=41	=41	=41	=41
8c\L	.	.	8cc\L	.	8ee\L	.	8c\	-men	8g\	-men	8ee\	-men
8A\	.	.	8ccc 8ee\	.	8ccc 8ee\	.	4c\	A-	4a\	a-	8ee\	a-
8Fn\	6 5	.	8ccc 8dd\	.	8ccc 8dd\	.	.	.	.	.	4dd\	.
8G\J	.	.	8bbJ 8dd\	.	8bbJ 8dd\	.	8B\	.	8g\	.	.	.
!	!	!	!	!	!	!	!LO:LB:g=original	!	!	!	!	!
4C/	.	.	4ccc 4ee 4g\	.	4ccc 4ee 4g\	.	4c\	-men	4g\	-men	4ee\	-men
!LO:TX:b:t=Vertatur	!	!	!	!	!	!	!	!	!	!	!	!
4r	.	.	4r	.	4r	.	4r	.	4r	.	4r	.
==	==	==	==	==	==	==	==	==	==	==	==	==
*-	*-	*-	*-	*-	*-	*-	*-	*-	*-	*-	*-	*-
!!!system-decoration: [(s1,s2,s3)][(s4,s5)]s6
!!!RDF**kern: | = vertical stroke
!!!ENC: Zofia Niedbalska
!!!END: 2020-10-31
!!!ENC: Kamil Watkowski
!!!END: 2020-06-05
!!!YEC: Copyright 2022 Narodowy Instytut Fryderyka Chopina (https://polishscores.org)
!!!YEM: License CC-BY-4.0 (https://creativecommons.org/licenses/by/4.0)
